X:169
T:Sweet Mary Strathspey
M:C
L:1/8
K:C
B|:"Am"A<B e2 e>d e<g|"G"G2 d>G B>A G<B|"Am"A<B e2 "C"e>d e<g|"Em"a>e g<B "Am"A/2A/2A A2:|
"Am"A<a a>b a>g g<a|"G"b>a a<g "C"g>e e<g|"G"d>eg>a b>g a<b|"Em"g>e g<B "Am"A/2A/2A A2:||
